X:1
T:Hanter Dro Choupette
Z:J.M. HENRY
R:Hanter Dro "Clam"
C:Trad.
A:Bretagne
M:3/4
L:1/8
Q:100
K:C
|:ed/c/ de cA | ed/c/ de cA | ed/c/ de c2 :|
AB/c/ dd c2 |[M:4/4][L:1/8] ed/c/ Bc .A2 A2 |
[M:3/4][L:1/8]AB/c/ dd c2 | ed/c/ Bc A2|]
